X: 20740
T: Johnny Going To Ceili
R: reel
M: 4/4
K: Dmixolydian
dc|:AG~G2 Addc|ABAG EDEG|AG~G2 AddB|cBAG EGD2:|
eg~g2 ed B/c/d|edeg a2ag|eg~g2 edcA|GAcd edd2|
eg~g2 ed B/c/d|ed e/f/g a2ag|eaag ~e3d|^cA B/c/d edd2||

